X:539
T: ES FLIEGT GAR MANCHES VOEGELEIN
N: E0521
O: Europa, Mitteleuropa, Deutschland, Thueringen
R: Liebes - Lied
M: 2/4
L: 1/16
K: G
D2 | G3FG2A2 | B3AG2
B2 | c2B2A2G2 | A4z2
D2 | G3FG2A2 | B3AG2
B2 | c2B2A2G2 | A4z2
A2 | A3BA2F2 | D2E2D2
A2 | A3BA2F2 | D4z2
D2 | G2G2A2A2 | B3cd2
c2 | B2B2A2A2 | G4z2

